icon-themes/sifr_svg/desktop/res/caution_12.svg

<svg viewBox="0 0 12 12" xmlns="http://www.w3.org/2000/svg"><path d="m6 0c-3.3137085 0-6 2.6862915-6 6s2.6862915 6 6 6 6-2.6862915 6-6-2.6862915-6-6-6zm-1 1h2v6h-2zm0 8h2v2h-2z" fill="#555753"/></svg>

<svg xmlns="http://www.w3.org/2000/svg" viewBox="0 0 12 12">
  <path
     style="fill:#555753"
     d="M 6,0 C 2.6862915,0 0,2.6862915 0,6 0,9.3137085 2.6862915,12 6,12 9.3137085,12 12,9.3137085 12,6 12,2.6862915 9.3137085,0 6,0 Z M 5,1 H 7 V 7 H 5 Z m 0,8 h 2 v 2 H 5 Z"
     />
</svg>
